public/img/ok-black.svg

<svg width="12" height="20" viewBox="0 0 12 20" fill="none" xmlns="http://www.w3.org/2000/svg">
<path d="M4.95854 14.0646C3.42754 13.9046 2.04654 13.5246 0.864541 12.5936C0.717541 12.4776 0.565541 12.3656 0.432541 12.2366C-0.0854588 11.7366 -0.137459 11.1626 0.272541 10.5726C0.622541 10.0666 1.21054 9.93164 1.82154 10.2226C1.93954 10.2776 2.05154 10.3486 2.16054 10.4236C4.36354 11.9476 7.39054 11.9896 9.60154 10.4926C9.82154 10.3226 10.0555 10.1846 10.3265 10.1146C10.8545 9.97864 11.3465 10.1736 11.6295 10.6386C11.9535 11.1686 11.9495 11.6886 11.5505 12.0996C10.9395 12.7326 10.2035 13.1896 9.38654 13.5086C8.61354 13.8106 7.76654 13.9626 6.92954 14.0626C7.05554 14.2016 7.11554 14.2696 7.19454 14.3496C8.33154 15.4996 9.47454 16.6466 10.6085 17.8006C10.9945 18.1946 11.0755 18.6816 10.8625 19.1396C10.6295 19.6396 10.1095 19.9686 9.59854 19.9336C9.27554 19.9106 9.02354 19.7486 8.79854 19.5216C7.94054 18.6516 7.06654 17.7976 6.22554 16.9116C5.98054 16.6536 5.86254 16.7026 5.64654 16.9266C4.78354 17.8216 3.90654 18.7026 3.02254 19.5796C2.62654 19.9726 2.15454 20.0436 1.69454 19.8196C1.20654 19.5796 0.894541 19.0786 0.919541 18.5736C0.935541 18.2316 1.10254 17.9716 1.33554 17.7376C2.46154 16.6056 3.58354 15.4706 4.70654 14.3376C4.78054 14.2616 4.85054 14.1816 4.95854 14.0646Z" fill="#4D4D4D"/>
<path d="M5.89165 10.1227C3.15965 10.1127 0.919645 7.83273 0.934645 5.07673C0.950645 2.29073 3.19265 0.0467273 5.95165 0.0537273C8.71565 0.0607273 10.9346 2.33873 10.9216 5.15373C10.9066 7.90373 8.65165 10.1317 5.89165 10.1227ZM8.37465 5.08273C8.37649 4.76068 8.31467 4.44145 8.19274 4.14338C8.0708 3.84531 7.89116 3.57427 7.66414 3.34586C7.43711 3.11744 7.16718 2.93614 6.86986 2.81238C6.57254 2.68863 6.25369 2.62485 5.93165 2.62473C5.60657 2.62441 5.28469 2.68888 4.9848 2.81435C4.68491 2.93982 4.41303 3.12379 4.18504 3.35551C3.95704 3.58723 3.7775 3.86205 3.6569 4.16393C3.5363 4.46581 3.47707 4.7887 3.48265 5.11373C3.48303 5.4359 3.54714 5.75481 3.67127 6.05211C3.79541 6.34941 3.97712 6.61921 4.20595 6.846C4.43478 7.07278 4.70621 7.25207 5.00461 7.37353C5.30301 7.49499 5.62248 7.55623 5.94465 7.55373C6.26681 7.55256 6.58555 7.48759 6.88245 7.36255C7.17936 7.23752 7.44856 7.0549 7.6745 6.82524C7.90043 6.59558 8.07863 6.32344 8.19881 6.02453C8.31898 5.72562 8.37874 5.40586 8.37465 5.08373V5.08273Z" fill="#4D4D4D"/>
</svg>

<svg width="12" height="20" fill="none" xmlns="http://www.w3.org/2000/svg"><path d="M4.959 14.065c-1.531-.16-2.912-.54-4.094-1.471-.147-.116-.3-.228-.432-.357-.518-.5-.57-1.074-.16-1.664.35-.506.938-.641 1.549-.35.118.055.23.126.339.2 2.203 1.525 5.23 1.567 7.44.07.22-.17.454-.308.725-.378.528-.136 1.02.059 1.303.524.325.53.32 1.05-.079 1.46-.61.634-1.347 1.09-2.163 1.41-.773.302-1.62.454-2.457.554.126.139.186.207.265.287 1.137 1.15 2.28 2.297 3.413 3.45.386.395.467.882.255 1.34-.233.5-.753.829-1.264.794-.323-.023-.575-.185-.8-.412-.858-.87-1.732-1.724-2.573-2.61-.245-.258-.363-.21-.58.015-.862.895-1.74 1.776-2.623 2.653-.396.393-.868.464-1.328.24-.488-.24-.8-.741-.775-1.246.016-.342.183-.602.416-.836 1.126-1.132 2.248-2.267 3.37-3.4.075-.076.145-.156.253-.273z" fill="#4D4D4D"/><path d="M5.892 10.123C3.16 10.113.92 7.833.935 5.077.95 2.29 3.193.047 5.952.054c2.764.007 4.983 2.285 4.97 5.1-.015 2.75-2.27 4.978-5.03 4.969zm2.483-5.04a2.444 2.444 0 00-4.19-1.727 2.447 2.447 0 00-.702 1.758 2.443 2.443 0 002.462 2.44 2.439 2.439 0 002.43-2.47v-.001z" fill="#4D4D4D"/></svg>
